X:318
T:My Braw Highland Laddie
B:Kerr's v.1 p.47
D:Wick S.C.D., The Sound of the North (1970)
O:Scotland
Z:Nigel Gatherer <gatherer@argonet.co.uk> scots-l 2001-11-30
L:1/8
M:4/4
K:A mixolydian
e|A>AAB e2 dB|A2 GA BAAB|d>dde d2 BA|G>GGA GE D>E|
GGGG g2 g>f|edeg edBd|e2 a>g e2 d>B|A2 e>d BAA:|
